X:191
T: GOLDNE ABENDSONNE WIE BIST DU SO SCHOEN
N: B0226
O: Europa, Mitteleuropa, Deutschland
R: Tageszeiten - Lied, Abend
M: 3/4
L: 1/16
K: G
 | B3cd4c4 | B4A4z4 |
G3GA4d4 | B8z4 |
e6d2c2B2 | d6c2
B2A2 | G4B4A4 | G8z4

@@@ Tune index: 1994
